X:30
T:Independent Hornpipe, The
T:Independence Hornpipe, The
R:hornpipe
S:Live recording of the Chieftains on the Swedish Radio 1991
Z:id:hn-hornpipe-30
M:C|
K:G
Bc | dgfa (3gab gd | (3efg dc (3Bcd BG | FGAB cBce | (3agf (3gfe d2Bc |
dgfa (3gab gd | (3efg dc (3Bcd bg | fedB cAFG | (3ABA GF G2 :|
|: AB | c2 (3BAG (3FAc (3edc | (3Bcd (3Bdg (3bag (3fed |
c2 (3BAG (3FAc (3edc | (3Bdg (3bdg (3bag (3fed |
e2 (3ceg (3c'ba (3gfe | d2 (3Bdg (3bag (3fed |
(3ced (3cBA (3fed (3cBA | (3GBd (3gdB G2 :|
P:variations
Bc | dgfa (3gab gd | (3efg dc (3Bcd BG | FGAB cdef | (3aba (3gfe (3ded (3cBc |
dgfa (3gab gd | (3efg dc (3Bcd BG | Fedc (3BAG (3AGF | (3GBd (3gdB G2
Bc | dgfa (3gab gd | (3efg dc (3Bcd BG | FGAB cdef | (3aba (3gfe dcBc |
dgfa (3gab gd | (3efg dc (3Bcd BG | FGAB cAFG | (3ABA GF G2 ||
|: AB | (3cdc (3BAG (3FGA (3edc | (3Bdg (3Bdg (3bag (3fed |
(3cBc (3BAG (3FGA (3edc | (3Bdg (3Bdg (3bag (3fed |
(3efe (3ceg (3c'ba (3gfe | (3ded (3Bdg (3bag (3fed |
(3egf (3edc (3BAG (3AGF | (3GBd (3gdB G2 :|
<end>
<start>
